X:1
T:Abschied vom Walde
T:Heinrich Esser
T:Johann Nepomuk Vogl
T:Abschied vom Walde
T:CPDL   —   Creative Commons Attribution Non Commercial 3.0
T:CPDL   —   Creative Commons Attribution Non Commercial 3.0
C:Heinrich Esser
Z:Johann Nepomuk Vogl
Z:CPDL   —   Creative Commons Attribution Non Commercial 3.0
%%score [ ( 1 2 ) ( 3 4 ) ]
L:1/8
Q:1/4=80
M:4/4
K:C
V:1 treble nm="Sopran\nAlt"
V:2 treble 
V:3 bass nm="Tenor\nBass"
V:4 bass 
V:1
!p!"^Ruhig und gemütlich" EF |!<(! G2 c2!<)! e3!mf! d | c3!>(! A !breath!G2!>)!!p!!<(! EF!<)! | %3
w: 1.   A- *|de, du lie- ber|Tan- nen- wald, a- *|
w: 2.   A- *|de, du lie- bes|Wal- des- grün, a- *|
w: 3.  Und *|scheid' ich auch auf|le- bens- lang, a- *|
!>(! !breath!G6!>)!!pp!"^Soli" EF | !breath!G6"^Tutti"!p! EF |!<(! G2 c2!<)!!mf! e3 d | %6
w: de, a- *|de! Wie *|rief die Schei- de-|
w: de, a- *|de! Ihr *|Blüm- lein mögt noch|
w: de, a- *|de! O *|Wald, o Fels, o|
 cB!>(! cA !breath!=G2!>)!!p!!<(! EF!<)! |!>(! !breath!G6!>)!"^Soli"!pp! EF | %8
w: stund' * so * bald, a- *|de, a- *|
w: lan- * ge * blühn, a- *|de, a- *|
w: Vo- * gel- * sang, a- *|de, a- *|
 !breath!G6!p!"^Tutti" GA |!<(! B3 ^F G2!<)! GA | B3 ^F !^!G2 Bc |"^cresc." d3 A B2 Bc | %12
w: de! Mir _|ist das Herz so _|trüb und schwer, als _|rief´s: Du siehst ihn *|
w: de! Mögt _|and- re Wand- rer _|noch er- freun und _|ih- nen eu- re *|
w: de! An _|euch, an euch zu _|al- ler Zeit ge- *|den- ke ich in *|
 d3 A !breath!!^!B2"^Halbchor"!<(! GB | d4 e4!<)! |!f! !breath!f6 ed |!p! c2 c2!<(! d3 ^d!<)! | %16
w: nim- mer- mehr, a- *|de, a-|de, du _|lie- ber Tan- nen-|
w: Düf- te streun, a- *|de, a-|de, du _|lie- bes Wal- des-|
w: Freu- dig- keit, a- *|de, a-|de, o *|Wald, o Vo- gel-|
!>(! !breath!e6!>)!!f!"^Tutti"!<(! GB | d4 e4!<)! |!ff! (!>!g2!>(! !breath!f4)!>)!!mf! ed | %19
w: wald, a- *|de, a-|de, _ du *|
w: grün, a- *|de, a-|de, _ du *|
w: sang, a- *|de, a-|de, _ o *|
!<(! c2 e2!<)! !>!e3!>(! d | !breath!c6!>)!!mf! Gc |!>(! !breath!c6!>)!!p!"^dimin. al" Gc | %22
w: lie- ber Tan- nen-|wald, a- *|de, a- *|
w: lie- bes Wal- des-|grün, a- *|de, a- *|
w: Wald, o Vo- gel-|sang, a- *|de, a- *|
!pp! !fermata!c4 !fermata!z2 |] %23
w: de!|
w: de!|
w: de!|
V:2
 CD | E2 E2 G3 ^G | A3 F E2 C2 | D6 C2 | D6 CD | E2 E2 G3 ^G | A^G AF E2 C2 | D6 C2 | D6 E2 | %9
 ^F3 ^D E2 E2 | ^F3 ^D E2 G2 | A3 ^F G2 G2 | A3 ^F G2 G2 | A4 A4 | A6 A2 | G2 G2 G3 G | G6 G2 | %17
 A4 A4 | A6 A2 | G2 G2 G3 F | E6 E2 | E6 E2 | E4 x2 |] %23
V:3
!p! G,2 |!<(! G,2 G,2!<)! C3!mf! C | C3!>(! C !breath!C2!>)!!p!!<(! G,2!<)! | %3
!>(! !breath!G,6!>)!!pp! G,2 | !breath!G,6!p! G,2 |!<(! G,2 G,2!<)!!mf! C3 C | %6
 C2!>(! C2 !breath!C2!>)!!p!!<(! G,2!<)! |!>(! !breath!G,6!>)!!pp! G,2 | !breath!G,6!p! B,2 | %9
!<(! B,3 B, B,2!<)! B,2 | B,3 B, !^!B,2 E2 |"^cresc." D3 D D2 D2 | D3 D !breath!!^!D2!<(! B,D | %13
 D4 ^C4!<)! |!f! !breath!D6 D2 |!p! E2 E2!<(! B,3 B,!<)! |!>(! !breath!C6!>)!!f!!<(! B,D | %17
 D4 ^C4!<)! |!ff! (!>!E2!>(! !breath!D4)!>)!!mf! D2 |!<(! E2 C2!<)! !>!B,3!>(! B, | %20
 !breath!C6!>)!!mf! CG, |!>(! !breath!G,6!>)!!p!"^dimin. al" CG, |!pp! !fermata!G,4 !fermata!z2 |] %23
V:4
 C,2 | C,2 C,2 C,3 E, | F,3 A, C2 C,2 | B,,6 C,2 | B,,6 C,2 | C,2 C,2 C,3 E, | F,2 A,2 C2 C,2 | %7
 B,,6 C,2 | B,,6 E,2 | ^D,3 B,, E,2 E,2 | ^D,3 B,, E,2 E,2 | ^F,3 =D, G,2 G,2 | ^F,3 D, G,2 G,2 | %13
 =F,4 E,4 | D,6 F,2 | G,2 G,2 G,3 G, | C,6 G,2 | F,4 E,4 | D,6 F,2 | G,2 G,2 G,3 G, | C,6 C,2 | %21
 C,6 C,2 | C,4 x2 |] %23

